email-edit-outline.svg

<svg fill="currentColor" viewBox="0 0 24 24"><path d="M19.07 13.88 13 19.94V22h2.06l6.06-6.07m1.58-2.35-1.28-1.28a.52.52 0 0 0-.38-.17c-.15.01-.29.06-.39.17l-1 1 2.05 2 1-1c.19-.2.19-.52 0-.72M11 18H4V8l8 5 8-5v2h2V6c0-1.1-.9-2-2-2H4c-1.1 0-2 .9-2 2v12c0 1.1.9 2 2 2h7zm9-12-8 5-8-5z"/></svg>

<svg  viewBox="0 0 24 24" fill="currentColor"><path  d="M19.07 13.88L13 19.94V22H15.06L21.12 15.93M22.7 13.58L21.42 12.3C21.32 12.19 21.18 12.13 21.04 12.13C20.89 12.14 20.75 12.19 20.65 12.3L19.65 13.3L21.7 15.3L22.7 14.3C22.89 14.1 22.89 13.78 22.7 13.58M11 18H4V8L12 13L20 8V10H22V6C22 4.9 21.1 4 20 4H4C2.9 4 2 4.9 2 6V18C2 19.1 2.9 20 4 20H11V18M20 6L12 11L4 6H20Z"/></svg>
